app/dist/common/images/richardson-electronics.svg

<svg height="18" viewBox="0 0 18 18" width="18" xmlns="http://www.w3.org/2000/svg"><path d="m0 0h18v18h-18z" fill="#0078c0"/><path d="m9.5 8h.76v1h-2.52v-1h.76v-.96a3 3 0 0 0 0 5.92v-.98l.52-.45.48.45v.98a3 3 0 0 0 2.33-1.96h-3.83v-1h4a3 3 0 0 0 -2.5-2.96zm0 5.97a4 4 0 0 0 3.37-2.97h1.13v-1h-1a4 4 0 0 0 -3.5-3.97v-3.03h-.98l-1.38 2.44.7.41.66-1.15v1.33a4 4 0 0 0 -3.5 3.97h-1v1h1.13a4 4 0 0 0 3.37 2.97v1.03h1z" fill="#fff" fill-rule="evenodd"/></svg>

<!-- by TradingView --><svg xmlns="http://www.w3.org/2000/svg" width="18" height="18" viewBox="0 0 18 18"><path fill="#0078C0" d="M0 0h18v18H0z"/><path fill-rule="evenodd" d="M9.5 8h.76v1H7.74V8h.76v-.96a3 3 0 0 0 0 5.92v-.98l.52-.45.48.45v.98A3 3 0 0 0 11.83 11H8v-1h4a3 3 0 0 0-2.5-2.96V8Zm0 5.97A4 4 0 0 0 12.87 11H14v-1h-1a4 4 0 0 0-3.5-3.97V3h-.98L7.14 5.44l.7.41.66-1.15v1.33A4 4 0 0 0 5 10H4v1h1.13a4 4 0 0 0 3.37 2.97V15h1v-1.03Z" fill="#fff"/></svg>
